X:1
T:Une jeune fillette
Z:Eric Forgeot - http://anamnese.online.fr
H:Micard 1576 (Chardavoine)   ?
N:luth donc 3 ème corde de sol en fa#
L:1/4
M:C
K:C french
%%scale 0.59
%%--strictness2 1
%%tabrhstyle modern
%%tabfontitalian itBorrono
%%tabfontfrench frFrancisque
%%--historicstyle
%%indent 0.6cm
%%sysstaffsep  30pt
%%barnumberfont Times-Italic 10 box
V:L1 clef=frenchtab name="Luth 1"
V:L2 clef=frenchtab name="Luth 2"
V:G1 clef=spanishtab name="Guitare 1"
V:G2 clef=spanishtab name="Guitare 2"
%
[V:L1] ,a1 | [a,bc1] [c,a] [d,,c] [a,b] | [c,a,c,1]>a ,d1 [,dd]     | [a,,c1] ,,,c c ,,,b     | [,a,c3] ,a1    |\
[a,bc1]   [c,a]    [d,,c/]   cda       | [c,a,c3/] a/ ,d ,c [,da1] | [a,,c1] [a,,c] c ,,,b   | [,a,c2] ,,,,,a ||
[ha,f2] [h,,f1] [f,a] | [da,,,a1] ,,,c/ ,,a ,,b ,,d [ca1] | [da1] [f,a] [h,,f] [ha] | [fca2] [ca1] c     |\ 
[da,c1] ,,b [a,d] a   | [c,da1] ,,a/ a [,db1] a            | [,c,c1] [a,b] [a,a] ,e | [a,,c2] ,,,,,a/ cdf |
[ha,f2] [h,,f1] [f,a] | [da,c1] ,,,c/ ,,a ,,b ,,e [ca1]    |[da1] [f,a] [h,,f] [ha] | [f,a/] dca [ca1] c  |\
[da,,,a/] fdc [a,,,a1] [a,d] | [c,da/] dca ,d ,c ,a1 | [,c,c/] ,d [a,,c1] [a,a/] ,e/4 ,c ,e1 | [a,,c2] ,,,,,a ||
%
[V:L2] x1 | [,a,c,a1] [,a,b] [,a,c,] ,c | [,d,,c]>,c ,a1 [,a,,c] | [,c,,a1] [,a,,,d] [,,d,,c2] | [,,c,,a2] ,,,c |\
[,a,c,a1] [,a,b] [,a,c/] ,,d ,a ,c | [,d,,c/] a ,d ,c ,a1 [,a,,c] | [,c,,a1] [,a,,,d] [,,d,,c] ,a/ ,,d | [,,c,,a2] ,,,c ||
[,d,,,d2] [,d,,,d1] [c,,a]  | [a,bc2] ,,,,,a1 [,ea,c]  | [a,,c1] [c,,a] [dd,,,d] ,f | [c,d,,c1] ,c [,da,c] ,d  |\
[a,b,,a3/] ,d/ [,c,,a1] ,c  | [,d,a1] ,,d [,a,,,d1] ,,b |[,,d,a1] [,a,,,a] [,a,,c2]  | [,a,,,a2] ,,b/ ,,d ,a ,c | 
[,d,,,d3/] ,c/ [,d,,,d] a [c,,a1]|[a,b,,a/] ,,a ,,b ,,d ,a ,c [,ea,,c1] | [a,,c1] [c,,a] [dd,,,d] ,f | [c,d,,c1] ,c [,da,c/] ,c ,d ,a |\
[a,bc3/] ,d/ [,c,,a] ,d a ,c | [,d,a/] a ,d ,c [,a,,,d1] ,,b | [,,d,a1] [,,b,,a/] ,,d [,a,,c] ,,,,a ,,,,c1 | [,a,,,,a2] ,,,c ||
%
%% <!> The parts below is just a carbon copy of the above
%
[V:G1] ,a1 | [a,bc1] [c,a] [d,,c] [a,b] | [c,a,c,1]>a ,d1 [,dd]     | [a,,c1] ,,,c c ,,,b     | [,a,c3] ,a1    |\
[a,bc1]   [c,a]    [d,,c/]   cda       | [c,a,c3/] a/ ,d ,c [,da1] | [a,,c1] [a,,c] c ,,,b   | [,a,c2] ,,,,,a ||
[ha,f2] [h,,f1] [f,a] | [da,,,a1] ,,,c/ ,,a ,,b ,,d [ca1] | [da1] [f,a] [h,,f] [ha] | [fca2] [ca1] c     |\ 
[da,c1] ,,b [a,d] a   | [c,da1] ,,a/ a [,db1] a            | [,c,c1] [a,b] [a,a] ,e | [a,,c2] ,,,,,a/ cdf |
[ha,f2] [h,,f1] [f,a] | [da,c1] ,,,c/ ,,a ,,b ,,e [ca1]    |[da1] [f,a] [h,,f] [ha] | [f,a/] dca [ca1] c  |\
[da,,,a/] fdc [a,,,a1] [a,d] | [c,da/] dca ,d ,c ,a1 | [,c,c/] ,d [a,,c1] [a,a/] ,e/4 ,c ,e1 | [a,,c2] ,,,,,a ||
%
[V:G2] x1 | [,a,c,a1] [,a,b] [,a,c,] ,c | [,d,,c]>,c ,a1 [,a,,c] | [,c,,a1] [,a,,,d] [,,d,,c2] | [,,c,,a2] ,,,c |\
[,a,c,a1] [,a,b] [,a,c/] ,,d ,a ,c | [,d,,c/] a ,d ,c ,a1 [,a,,c] | [,c,,a1] [,a,,,d] [,,d,,c] ,a/ ,,d | [,,c,,a2] ,,,c ||
[,d,,,d2] [,d,,,d1] [c,,a]  | [a,bc2] ,,,,,a1 [,ea,c]  | [a,,c1] [c,,a] [dd,,,d] ,f | [c,d,,c1] ,c [,da,c] ,d  |\
[a,b,,a3/] ,d/ [,c,,a1] ,c  | [,d,a1] ,,d [,a,,,d1] ,,b |[,,d,a1] [,a,,,a] [,a,,c2]  | [,a,,,a2] ,,b/ ,,d ,a ,c | 
[,d,,,d3/] ,c/ [,d,,,d] a [c,,a1]|[a,b,,a/] ,,a ,,b ,,d ,a ,c [,ea,,c1] | [a,,c1] [c,,a] [dd,,,d] ,f | [c,d,,c1] ,c [,da,c/] ,c ,d ,a |\
[a,bc3/] ,d/ [,c,,a] ,d a ,c | [,d,a/] a ,d ,c [,a,,,d1] ,,b | [,,d,a1] [,,b,,a/] ,,d [,a,,c] ,,,,a ,,,,c1 | [,a,,,,a2] ,,,c ||
%% end of copied parts
% 
%%begintext
%%
%%Une jeune fillette de noble coeur,
%%Plaisante et joliette de grand' valeur,
%%Outre son gre on l'a rendu' nonnette
%%Cela point ne luy haicte dont vit en grand' douleur.
%%
%%Vn soir apres complie seulette estoit,
%%En grand melancolie se tourmentoit,
%%Disant ainsi, douce Vierge Marie
%%Abregez moy la vie, puisque mourir je doy.
%%endtext

Mon pauvre coeur souspire incessament,
Aussi ma mort desire journellement.
Qu'a mes parens ne puis mander n'escrire,
Ma beaute fort empire, je vis en grand tourment.

Que ne m'a-t-on donnee a mon loyal amy,
Qui tant m'a desiree aussi ay-je moy luy,
Toute la nuict my tiendroit embrassee
Me disant la pensee et moy la mienne a luy.

A Dieu vous dy mon pere, ma mere e mes parens,
Qui m'avez voulu faire nonette en ce couvent,
Ou il n'y a point de resjouissance,
Je vis en desplaisance je n'attens que la mort.

La mort est fort cruelle a endurer,
Combien qu'il faut par elle trestous passer.
Encor'est plus grand mal que j'endure,
Et la peine plus dure qu'il me faut supporter.

A Dieu vous dy les filles de mon pays,
Puis qu'en cest' Abbaye me faut mourir,
En attendant de mon Die la sentence,
Je vy en esperance d'en avoir reconfort.
